src/svgs/grunt.svg

<svg xmlns="http://www.w3.org/2000/svg" viewBox="0 0 32 32"><path fill="#EF7623" d="M22.5 16.4c.4-.2.9-.4 1.3-.7.9-.6.9-1.7 0-2.1-.2-.1-.3-.3-.4-.6-.1-.6 0-1.1.3-1.6.7-1 .2-1.8-1.1-1.9h-.1l-.1-.1c-.1-.5-.2-.9.4-1.3.2-.1.5-.2.8-.3.2-.1.4-.1.5-.1 0-.1-.1-.1-.1-.1-.7-.8-1.7-1-2.6-.9-1.2.1-1.9.7-2.6 1.5-.1.2-.3.2-.5.1s-.2-.2-.2-.3c0-.2.1-.4.1-.6l.3-.6c-.6 0-1 .3-1.5.6-.3-.5-.3-.9-.1-1.4-.9.3-1.5.7-1.7 1.6-.3-.3-.2-.7-.2-1.1h-.1c-.1 0-.1.1-.2.1-.5.4-.8.9-.9 1.4 0 .1-.1.2-.1.3-.1-.1-.2-.1-.3-.2-.4-.3-.8-.7-1.2-1-1.2-.7-2.3-.7-3.5-.1l-.8.8c.4.2.8.2 1.2.4.7.2.9.6.6 1.4-.2 0-.4.1-.6.1-.7.2-1 .7-.9 1.3.1.3.3.6.4.9 0 .1.1.2.1.3v1c0 .2-.2.4-.4.6-.2.2-.5.4-.6.7-.3.5 0 1.1.5 1.5.4.3.8.5 1.3.7.6.3.8.7.8 1.2 0 .6 0 1.1-.1 1.7 0 .2-.1.5-.1.8-.6-.5-1-1-1.1-1.7-.6.5-.9 1-.9 1.6-.2 1.3.3 2.6 1.9 3.2.1 0 .2.1.3.2.6 1 1.5 1.6 2.7 1.8.1 0 .2 0 .2.1 1.1.7 2.2.8 3.4.7.7-.1 1.3-.2 1.8-.6.1-.1.3-.1.4-.2 1.2-.2 2-.8 2.6-1.7l.3-.3c.6-.2 1.1-.5 1.4-1 .5-.7.6-1.6.5-2.3-.1-.6-.4-1-.9-1.5-.2.7-.5 1.2-1.1 1.7-.1-.9-.1-1.8-.1-2.6.2-.8.5-1.2 1-1.4zm-8.4 5.3h4.5-4.5z"/></svg>

<?xml version="1.0" encoding="UTF-8" standalone="no"?>
<svg
   viewBox="0 0 32 32"
   version="1.1"
   id="svg4"
   xmlns="http://www.w3.org/2000/svg"
   xmlns:svg="http://www.w3.org/2000/svg">
  <defs
     id="defs8" />
  <path
     fill="#ef7623"
     d="M 22.5,16.4 C 22.9,16.2 23.4,16 23.8,15.7 24.7,15.1 24.7,14 23.8,13.6 23.6,13.5 23.5,13.3 23.4,13 23.3,12.4 23.4,11.9 23.7,11.4 24.4,10.4 23.9,9.6 22.6,9.5 H 22.5 L 22.4,9.4 C 22.3,8.9 22.2,8.5 22.8,8.1 23,8 23.3,7.9 23.6,7.8 23.8,7.7 24,7.7 24.1,7.7 24.1,7.6 24,7.6 24,7.6 23.3,6.8 22.3,6.6 21.4,6.7 20.2,6.8 19.5,7.4 18.8,8.2 18.7,8.4 18.5,8.4 18.3,8.3 18.1,8.2 18.1,8.1 18.1,8 18.1,7.8 18.2,7.6 18.2,7.4 L 18.5,6.8 C 17.9,6.8 17.5,7.1 17,7.4 16.7,6.9 16.7,6.5 16.9,6 16,6.3 15.4,6.7 15.2,7.6 14.9,7.3 15,6.9 15,6.5 H 14.9 C 14.8,6.5 14.8,6.6 14.7,6.6 14.2,7 13.9,7.5 13.8,8 13.8,8.1 13.7,8.2 13.7,8.3 13.6,8.2 13.5,8.2 13.4,8.1 13,7.8 12.6,7.4 12.2,7.1 11,6.4 9.9,6.4 8.7,7 L 7.9,7.8 C 8.3,8 8.7,8 9.1,8.2 9.8,8.4 10,8.8 9.7,9.6 9.5,9.6 9.3,9.7 9.1,9.7 8.4,9.9 8.1,10.4 8.2,11 8.3,11.3 8.5,11.6 8.6,11.9 8.6,12 8.7,12.1 8.7,12.2 V 13.2 C 8.7,13.4 8.5,13.6 8.3,13.8 8.1,14 7.8,14.2 7.7,14.5 7.4,15 7.7,15.6 8.2,16 8.6,16.3 9,16.5 9.5,16.7 10.1,17 10.3,17.4 10.3,17.9 10.3,18.5 10.3,19 10.2,19.6 10.2,19.8 10.1,20.1 10.1,20.4 9.5,19.9 9.1,19.4 9,18.7 8.4,19.2 8.1,19.7 8.1,20.3 7.9,21.6 8.4,22.9 10,23.5 10.1,23.5 10.2,23.6 10.3,23.7 10.9,24.7 11.8,25.3 13,25.5 13.1,25.5 13.2,25.5 13.2,25.6 14.3,26.3 15.4,26.4 16.6,26.3 17.3,26.2 17.9,26.1 18.4,25.7 18.5,25.6 18.7,25.6 18.8,25.5 20,25.3 20.8,24.7 21.4,23.8 L 21.7,23.5 C 22.3,23.3 22.8,23 23.1,22.5 23.6,21.8 23.7,20.9 23.6,20.2 23.5,19.6 23.2,19.2 22.7,18.7 22.5,19.4 22.2,19.9 21.6,20.4 21.5,19.5 21.5,18.6 21.5,17.8 21.7,17 22,16.6 22.5,16.4 Z"
     id="path2" />
</svg>
